components/icons/foodIcon/CHINESE.svg

<svg width="32" height="32" viewBox="0 0 32 32" fill="none" xmlns="http://www.w3.org/2000/svg">
<path d="M32 16C32 24.84 24.84 32 16 32C7.16 32 0 24.84 0 16C0 7.16 7.16 0 16 0C24.84 0 32 7.16 32 16Z" fill="#F57367"/>
<path opacity="0.25" d="M17.71 31.8296C18.21 31.7796 18.74 31.7796 19.22 31.6796C21.27 31.2596 23.21 30.4396 24.94 29.2696C25.79 28.6896 26.58 28.0396 27.31 27.3096C28.04 26.5896 28.69 25.7896 29.27 24.9396C29.56 24.5096 29.76 24.0296 30.01 23.5696L21.37 14.9296L21.32 14.8896C21.04 14.6196 20.75 14.3696 20.43 14.1496C20.16 13.9596 19.87 13.7796 19.58 13.6296C19.56 13.6196 19.54 13.6096 19.52 13.5996L17.19 11.2696C17.19 11.2696 17.17 11.2496 17.16 11.2396L17.11 11.1996C16.99 11.0896 16.86 11.0096 16.72 10.9396C16.66 10.9096 16.6 10.8896 16.54 10.8796C16.51 10.8796 16.49 10.8596 16.46 10.8496C15.73 10.6896 15.01 11.1496 14.85 11.8796C14.83 11.9796 14.82 12.0796 14.82 12.1796C14.82 12.4796 14.89 12.7796 15.12 13.0096C11.65 13.5396 9.08997 16.3996 9.08997 19.9396C9.08997 20.0496 9.08997 20.1496 9.09997 20.2396C9.10997 20.3296 9.12997 20.4296 9.16997 20.5396H7.13997C6.98997 20.5396 6.83997 20.6896 6.83997 20.8396C6.83997 20.9196 6.87997 20.9896 6.92997 21.0496L17.7 31.8296H17.71Z" fill="black"/>
<path d="M16.19 10.8196C15.44 10.8196 14.83 11.4196 14.83 12.1796C14.83 12.4796 14.9 12.7796 15.13 13.0096C11.66 13.5396 9.09998 16.3996 9.09998 19.9396C9.09998 20.1696 9.09998 20.3196 9.17998 20.5396H7.14997C6.99997 20.5396 6.84998 20.6896 6.84998 20.8396C6.84998 20.9896 6.99997 21.1396 7.14997 21.1396H9.40997C14.54 21.1396 21.92 21.2196 24.86 21.1396C25.01 21.1396 25.16 20.9896 25.16 20.8396C25.16 20.6896 25.01 20.5396 24.86 20.5396H23.35C23.35 20.3096 23.43 20.0896 23.43 19.8596C23.43 16.3196 20.79 13.4496 17.33 12.8496C17.48 12.6196 17.63 12.3196 17.63 12.0196C17.55 11.4896 16.95 10.8096 16.2 10.8096L16.19 10.8196ZM19.13 15.6496H19.21C20.04 15.7996 20.79 16.3996 20.94 17.1596C21.02 17.3096 20.86 17.5396 20.71 17.5396C20.56 17.6196 20.33 17.4596 20.33 17.3096C20.18 16.7096 19.65 16.3296 19.05 16.1796C18.82 16.2596 18.82 15.7296 19.13 15.6496Z" fill="white"/>
</svg>

<svg xmlns="http://www.w3.org/2000/svg" width="48" height="48" viewBox="0 0 32 32" version="1" id="food">
  <path fill="#f37a5d" d="M32 16c0 8.836-7.164 16-16 16S0 24.836 0 16 7.164 0 16 0s16 7.164 16 16z"></path>
  <path d="M17.71 31.828c.505-.054 1.026-.052 1.515-.152a15.887 15.887 0 0 0 5.72-2.408 16.083 16.083 0 0 0 2.367-1.956 16.083 16.083 0 0 0 1.956-2.367c.289-.428.494-.91.742-1.367l-8.637-8.639-.047-.04a7.316 7.316 0 0 0-.885-.739 7.479 7.479 0 0 0-.85-.525c-.019-.01-.036-.025-.056-.035l-2.328-2.329c-.01-.01-.024-.018-.035-.029l-.045-.039a1.584 1.584 0 0 0-.393-.26 1.396 1.396 0 0 0-.183-.064c-.027-.008-.051-.021-.078-.027a1.35 1.35 0 0 0-1.64 1.326c-.001.301.074.602.3.828-3.467.527-6.03 3.39-6.03 6.933 0 .114 0 .209.01.303s.029.188.067.301H7.145c-.151 0-.303.152-.303.303 0 .075.037.15.094.207L17.71 31.828z" opacity=".25"></path>
  <path fill="#fff" d="M16.188 10.82c-.753 0-1.356.603-1.356 1.357 0 .301.075.603.301.829-3.467.528-6.03 3.392-6.03 6.934 0 .226 0 .377.076.603H7.144c-.151 0-.302.151-.302.302 0 .15.15.301.302.301h2.26c5.126 0 12.513.076 15.452 0 .151 0 .302-.15.302-.301 0-.15-.15-.302-.302-.302H23.35c0-.226.075-.452.075-.678 0-3.543-2.638-6.407-6.105-7.01.15-.226.302-.527.302-.829-.076-.527-.679-1.206-1.433-1.206zm2.94 4.824h.075c.83.15 1.583.754 1.734 1.508.075.15-.075.376-.226.376-.15.076-.377-.075-.377-.226-.15-.603-.678-.98-1.281-1.13-.227.075-.227-.453.075-.528z"></path>
</svg>
